X: 5
T: The Trip To Pakistan
R: reel
M: 4/4
L: 1/8
K: Emin
|:EGBE G3B|A3G FGAF|EGBE G3B|AGFG E4:||
|:EGBG c3A|B3G AGFG|EGBG c3A|BAGB A4:||
|:FGBF GBFG|EFGE FGEF|DFAD FADF|AGFG E4:||
|:EGBe e4|agbg agfg|EGBe e4|agfg e4:||


Tune 112	Setting 30225

